packages/dynamic-pages/assets/github.svg

<svg width="32" height="32" viewBox="0 0 32 32" fill="none" xmlns="http://www.w3.org/2000/svg">
<path fill-rule="evenodd" clip-rule="evenodd" d="M15.9994 4C3.99997 4 4.00003 4.00001 4 16.3046C3.99997 27.9775 4 27.9775 12.2068 27.9793C12.8068 28.0919 13.0258 27.7123 13.0258 27.3863C13.0258 27.094 13.0156 26.3201 13.0096 25.2933C9.6718 26.0371 8.9674 23.644 8.9674 23.644C8.422 22.2229 7.6348 21.8439 7.6348 21.8439C6.5452 21.0804 7.717 21.0958 7.717 21.0958C8.9212 21.1826 9.5548 22.3638 9.5548 22.3638C10.6252 24.2438 12.3634 23.7012 13.0474 23.3862C13.1566 22.5914 13.4662 22.0488 13.8094 21.7412C11.1448 21.4305 8.3434 20.3748 8.3434 15.6599C8.3434 14.3169 8.8108 13.2182 9.5788 12.3581C9.4552 12.0468 9.0436 10.7961 9.6964 9.10186C9.6964 9.10186 10.7038 8.77089 12.9964 10.363C13.9534 10.0899 14.98 9.95392 16.0006 9.949C17.0194 9.95392 18.046 10.0905 19.0048 10.363C21.2956 8.77089 22.3012 9.10186 22.3012 9.10186C22.9558 10.7961 22.5442 12.0468 22.4206 12.3581C23.1898 13.2182 23.6542 14.3163 23.6542 15.6599C23.6542 20.3865 20.8486 21.4268 18.175 21.7313C18.6058 22.1109 18.9898 22.8621 18.9898 24.01C18.9898 25.6551 18.9748 26.9821 18.9748 27.3856C18.9748 27.7148 19.1908 28.0974 19.7998 27.9775C28 27.9775 28 27.9793 28 16.3046C28 4 28 4 15.9994 4Z" fill="rgba(238,238,255,0.7)"/>
</svg>

<svg width="32" height="32" fill="none" xmlns="http://www.w3.org/2000/svg"><path fill-rule="evenodd" clip-rule="evenodd" d="M16 4C4 4 4 4 4 16.305c0 11.672 0 11.672 8.207 11.674.6.113.819-.267.819-.593 0-.292-.01-1.066-.016-2.093-3.338.744-4.043-1.649-4.043-1.649-.545-1.421-1.332-1.8-1.332-1.8-1.09-.764.082-.748.082-.748 1.204.087 1.838 1.268 1.838 1.268 1.07 1.88 2.808 1.337 3.492 1.022.11-.795.42-1.337.762-1.645-2.664-.31-5.466-1.366-5.466-6.081 0-1.343.468-2.442 1.236-3.302-.124-.311-.535-1.562.117-3.256 0 0 1.008-.331 3.3 1.261.957-.273 1.984-.41 3.005-.414 1.018.005 2.045.142 3.004.414 2.29-1.592 3.296-1.261 3.296-1.261.655 1.694.243 2.945.12 3.256.769.86 1.233 1.958 1.233 3.302 0 4.727-2.805 5.767-5.479 6.071.43.38.815 1.131.815 2.279 0 1.645-.015 2.972-.015 3.376 0 .329.216.711.825.591 8.2 0 8.2.002 8.2-11.672C28 4 28 4 16 4z" fill="rgba(238,238,255,0.7)"/></svg>
